images/ns-engadget.svg

<svg height="33" stroke-width="0" viewBox="0 0 152 33" width="152" xmlns="http://www.w3.org/2000/svg"><path d="m0 24.1c0 1.6 1.3 2.9 3 2.9h12v-3h-12v-3h11.8c1.6 0 3.2-1.3 3.2-2.9v.1-5.9c0-1.6-1.5-3.2-3.2-3.2h-11.8c-1.6 0-3 1.6-3 3.2zm15-6.1h-12v-6h12zm40.1-9h-11.9c-1.6 0-3.2 1.6-3.2 3.2v11.9-.1c0 1.6 1.6 3 3.2 3h11.8v3h-12v3h12.1c1.6 0 2.9-1.4 2.9-3v-17.8c0-1.6-1.3-3.2-2.9-3.2zm-.1 15h-12v-12h12zm-23-15h-8.9c-1.6 0-3.1 1.6-3.1 3.2v14.8h3v-15h9c1.6 0 3 1.5 3 3.2v11.8h3v-11.8c0-3.3-2.7-6.2-6-6.2zm43 15h-12v-8.9c0-1.6 1.6-3.2 3.3-3.2h8.7v15h3v-14.7c0-1.6-1.2-3.2-2.8-3.2h-8.9c-3.3 0-6.3 2.9-6.3 6.2v8.9c0 1.6 1.7 2.9 3.3 2.9h5.2c2.7 0 5.5-1.1 6.5-3v3m68-27h-3v27h3v-15h9v-3h-9zm-42 24.1c0 1.6.9 2.9 2.5 2.9h11.5v3h-11v3h11.4c1.6 0 2.6-1.4 2.6-3.1v.1-17.8c0-1.6-1-3.2-2.6-3.2h-11.9c-1.6 0-2.5 1.6-2.5 3.2zm14-.1h-11v-12h11zm-20-15h-11.6c-1.6 0-3.4 1.6-3.4 3.2v11.9-.1c0 1.6 1.8 3 3.4 3h14.6v-27h-3zm0 15h-12v-12h12zm25 .1c0 1.6 1.7 2.9 3.3 2.9h11.7v-3h-12v-3h12.2c1.6 0 2.8-1.3 2.8-2.9v.1-5.9c0-1.6-1.2-3.2-2.8-3.2h-11.9c-1.6 0-3.3 1.6-3.3 3.2zm15-6.1h-12v-6h12z"/></svg>

<?xml version="1.0" encoding="UTF-8"?>
<svg xmlns:xlink="http://www.w3.org/1999/xlink" xmlns="http://www.w3.org/2000/svg" class="Fill(#fff) Stk(#fff) Cur(p)" width="152" style="stroke-width:0;vertical-align:bottom" height="33" viewBox="0 0 152 33"><path d="M0 24.1C0 25.7 1.3 27 3 27h12v-3H3v-3h11.8c1.6 0 3.2-1.3 3.2-2.9v.1-5.9c0-1.6-1.5-3.2-3.2-3.2H3c-1.6 0-3 1.6-3 3.2v11.8zM15 18H3v-6h12v6zm40.1-9H43.2c-1.6 0-3.2 1.6-3.2 3.2v11.9-.1c0 1.6 1.6 3 3.2 3H55v3H43v3h12.1c1.6 0 2.9-1.4 2.9-3V12.2c0-1.6-1.3-3.2-2.9-3.2zM55 24H43V12h12v12zM32 9h-8.9c-1.6 0-3.1 1.6-3.1 3.2V27h3V12h9c1.6 0 3 1.5 3 3.2V27h3V15.2c0-3.3-2.7-6.2-6-6.2zm43 15H63v-8.9c0-1.6 1.6-3.2 3.3-3.2H75v15h3V12.2c0-1.6-1.2-3.2-2.8-3.2h-8.9C63 9 60 11.9 60 15.2v8.9c0 1.6 1.7 2.9 3.3 2.9h5.2c2.7 0 5.5-1.1 6.5-3v3m68-27h-3v27h3V12h9V9h-9zm-42 24.1c0 1.6.9 2.9 2.5 2.9H115v3h-11v3h11.4c1.6 0 2.6-1.4 2.6-3.1v.1-17.8c0-1.6-1-3.2-2.6-3.2h-11.9c-1.6 0-2.5 1.6-2.5 3.2v11.9zm14-.1h-11V12h11v12zM95 9H83.4c-1.6 0-3.4 1.6-3.4 3.2v11.9-.1c0 1.6 1.8 3 3.4 3H98V0h-3v9zm0 15H83V12h12v12zm25 .1c0 1.6 1.7 2.9 3.3 2.9H135v-3h-12v-3h12.2c1.6 0 2.8-1.3 2.8-2.9v.1-5.9c0-1.6-1.2-3.2-2.8-3.2h-11.9c-1.6 0-3.3 1.6-3.3 3.2v11.8zm15-6.1h-12v-6h12v6z" stroke="#FFFFFF" fill="#000000" stroke-width="0px"></path></svg>
